X: 52
T:Trumpet Minuet,A,(Melody). BC.49a
M:3/4
L:1/8
Q:120
S:Benjamin Cooke MS.circa 1770, F.Kidson Coll.
R:Minuet
O:England
A:Uncertain, probably northern
Z:vmp.John Bagnal
K:D
D2 DDDD | F2 FFFF | A2 AAAA | d4 e2 |!
 fe d2 e2 | fe d2 e2 | f2 gfed | edcB A2 |!
 D2 DDDD | F2 FFFF | A2 AAAA | d4 e2 |!
 fe d2 e2 | fe d2e2 | f2 gfef | d6 ||!
({fg}a2) aaaa | a2 bagf | "tr"g2 gggg| g2 agfe |!
 f2 ffff| "tr" f2 fg a2 | e2 eeee| e6 |!
 D2 DDDD | F2 FFFF|A2 AAAA | d4 e2 |!
 fe d2 e2 | fe d2 e2 | fagfef | d6 |]
